X:11711
T:New Century, The
S:Matt Molloy and Sean Keane
D:from Contentment is Wealth (Green Linnet 1058). Compare: A Tribute to Michael Coleman (Green Linnet 3097)
N:A lightly diplomatic transcription by Alan Ng, with priority given to Sean Keane's playing.
R:Hornpipe
Z:Transcribed by Alan Ng agng@students.wisc.edu Aug. 30, 1996 id:ng-other-1
K:GMix
M:C|
Bc|dG{A}G^F GB(3dcB|cF{G}FE FA{d}cA|{c}BGG^F GB(3de^f|gb(3ag^f ga(3gfe|\
dedB G2 AB|cecA ~F2 GA|(3BAG gd ec d^F|1AGG^F GA:|2AGG^F G2 GA|:\
Bcde fdcA|dDE^F ~G3A|Bcde (3fed ge|a^fd^c d2 (3def|gdBG ecA^F|\
~G3B AG^FG|(3^FED FA cedF|AG{A}G^F ~G3 A:|
 


